X: 10249
T: Doc Holliday's
R: reel
M: 4/4
K: Gmajor
|:ebae (fg)ed|(3egb ag ge d2|(3egb ag g2 ed|(3efg Be dBAB:|
|:G2 GA B2 dB|G2 Ge (3dBA BA|G2 GA B2 dB|1 edde B2 AB:|2 egde B2 BA||

